frontend/assets/images/svgs/book_tickets.svg

<svg xmlns="http://www.w3.org/2000/svg" width="25" height="25" viewBox="0 0 60 60" enable-background="new 0 0 60 60"><path fill="#767676" d="M60 27.954V13.622l-2.728-2.727H2.728L0 13.622v14.333l2.728 1.363v1.364L0 32.045V46.36l2.728 2.728h54.545L60 46.36V32.046l-2.728-1.363v-1.364L60 27.954zm-11.245 15.68H46.03V40.91h2.725v2.724zm0-4.092H46.03v-2.725h2.725v2.725zm0-4.09H46.03v-2.725h2.725v2.725zm0-4.09H46.03v-2.726h2.725v2.725zm0-4.09H46.03v-2.727h2.725v2.726zm0-4.09H46.03v-2.727h2.725v2.726zm0-4.092H46.03v-2.726h2.725v2.726z"/></svg>

<?xml version="1.0" encoding="utf-8"?>
<!-- Generator: Adobe Illustrator 16.0.1, SVG Export Plug-In . SVG Version: 6.00 Build 0)  -->
<!DOCTYPE svg PUBLIC "-//W3C//DTD SVG 1.1//EN" "http://www.w3.org/Graphics/SVG/1.1/DTD/svg11.dtd">
<svg version="1.1" id="Layer_1" xmlns="http://www.w3.org/2000/svg" xmlns:xlink="http://www.w3.org/1999/xlink" x="0px" y="0px"
	 width="25" height="25" viewBox="0 0 60 60" enable-background="new 0 0 60 60" xml:space="preserve">
<path fill="#767676" d="M60,27.954V13.622l-2.728-2.727H2.728L0,13.622v14.333l2.728,1.363v1.364L0,32.045v14.316l2.728,2.727
	h54.545L60,46.361V32.045l-2.728-1.363v-1.364L60,27.954z M48.755,43.634h-2.724v-2.725h2.724V43.634z M48.755,39.542h-2.724v-2.725
	h2.724V39.542z M48.755,35.452h-2.724v-2.725h2.724V35.452z M48.755,31.361h-2.724v-2.725h2.724V31.361z M48.755,27.271h-2.724
	v-2.726h2.724V27.271z M48.755,23.181h-2.724v-2.726h2.724V23.181z M48.755,19.09h-2.724v-2.726h2.724V19.09z"/>
</svg>
